X:1
T:Title
%%score { ( 1 3 ) | ( 2 4 ) }
L:1/8
Q:1/4=135
M:6/4
K:Ab
V:1 treble nm="Grand Piano"
V:3 treble 
V:2 bass 
V:4 bass 
V:1
 [Ec]2 [DB]2 [CA]2 C2 [CG]2 [CF]2 | F4 E2 E6 | B2 =A2 B2 D2 G2 F2 | [CE]12 | %4
w: J.~Lincoln~Hall * * * * *||||
 [Ec]2 [=D_c]2 [E=c]2 A2 B2 c2 |[M:7/4] [Fe]4 [F=d]2 [F_d]6 [FA]2 |[M:6/4] c2 E2 c2 [=DB]4 [_DB]2 | %7
w: |||
 [CA]12 | .[CE]6 A2 B2 A2 | c6 c6 | .e6 z6 | c12 | B2 =A2 B2 d2 c2 B2 | [CA]2 [DB]2 [Ec]2 A6 | %14
w: |||||||
 B2 e2 G2 [=DB]2 [DA]2 [DF]2 | [DB]6 [G,DE]6 | z6 .A6 | c6 c6 | .e6 z6 | c12 | e2 =d2 e2 f2 e2 A2 | %21
w: |||||||
[M:7/4] [Fe]4 [F=d]2 [F_d]6 [=EA]2 |[M:6/4] c2 E2 c2 [=DB]4 [_DB]2 | [CA]12 |] %24
w: |||
V:2
 [A,,A,]2 [A,,A,]2 [A,,A,]2 [A,,A,]2 [A,,A,]2 [A,,A,]2 | [E,G,D]4 [E,G,D]2 [E,G,D]6 | %2
 [E,G,D]2 [E,_G,C]2 [E,=G,D]2 [E,G,B,]2 [E,G,B,]2 [E,G,_C]2 | [A,,A,]12 | %4
 [A,,A,]2 [A,,A,]2 [A,,A,]2[K:treble] [A,C]2 [A,DG]2 [A,E_G]2 | %5
[M:7/4][K:bass] [D,D]4 [D,A,]2 [D,A,]6 [D,A,]2 | %6
[M:6/4] [E,A,E]2 [E,A,C]2 [E,A,E]2 [B,,A,]4 [E,G,]2 | [A,,A,]12 | %8
 z2[K:treble] F2 G2[K:bass] A,,4 [A,,A,]2 | .[A,CE]6 .[A,CA]4[K:bass] [A,C]2 | [E,B,]6 z2 E2 =D2 | %11
 [A,,A,]12 | [E,G,D]2 [E,_G,C]2 [E,=G,D]2 [E,G,F]2 [E,G,E]2 [E,G,D]2 | %13
 [A,,A,]2 [A,,A,]2 [A,,A,]2 [A,C]6 | [E,G,E]2 [E,G,E]2 [E,B,E]2 [B,,B,]2 [B,,F,]2 [B,,A,]2 | %15
 [E,G,]6 E,6 | z2[K:treble] F2 G2[K:bass] A,,4 [A,,A,]2 | .[A,CE]6 .[A,CA]4[K:bass] [A,C]2 | %18
 [E,B,]6 z2 E2 =D2 | [A,,A,]12 | [A,C_G]2 [A,_CF]2 [A,=CG]2 [A,CG]2 [A,CG]2 [A,CG]2 | %21
[M:7/4][K:bass] [D,D]4 [D,A,]2 [D,A,]6 [D,A,]2 | %22
[M:6/4] [E,A,E]2 [E,A,C]2 [E,A,E]2 [B,,A,]4 [E,G,]2 | [A,,A,]12 |] %24
V:3
 x12 | x12 | x12 | x12 | x12 |[M:7/4] x14 |[M:6/4] x12 | x12 | z6 .[A,C]6 | z2 F2 G2 z2 B2 A2 | %10
 G2- [G-B]2 [Gc]2 [Fd]2 c2 _c2 | E2 A2 G2 F2 E2 C2 | x12 | x12 | x12 | x12 | %16
 .[A,CE]6 [A,C]2- [A,C-B]2 [CA]2 | z2 F2 G2 z2 B2 A2 | G2- [G-B]2 [Gc]2 [Fd]2 c2 _c2 | %19
 E2 A2 G2 F2 E2 C2 | x12 |[M:7/4] x14 |[M:6/4] x12 | x12 |] %24
V:4
 x12 | x12 | x12 | x12 | x6[K:treble] x6 |[M:7/4][K:bass] x14 |[M:6/4] x12 | x12 | %8
 [A,,A,]6[K:treble][K:bass] z6 | x10[K:bass] x2 | z6 [E,G,]6 | x12 | x12 | x12 | x12 | x12 | %16
 A,,6[K:treble][K:bass] z6 | x10[K:bass] x2 | z6 [E,G,]6 | x12 | x12 |[M:7/4][K:bass] x14 | %22
[M:6/4] x12 | x12 |] %24

